packages/bezier-icons/icons/cash.svg

<svg width="24" height="24" viewBox="0 0 24 24" fill="none" xmlns="http://www.w3.org/2000/svg">
<path fill-rule="evenodd" clip-rule="evenodd" d="M4 12C4 16.411 7.589 20 12 20C16.411 20 20 16.411 20 12C20 7.589 16.411 4 12 4C7.589 4 4 7.589 4 12ZM2 12C2 6.486 6.486 2 12 2C17.514 2 22 6.486 22 12C22 17.514 17.514 22 12 22C6.486 22 2 17.514 2 12ZM12 8C13.4868 8 14.7841 8.81118 15.4736 10.0151L13.7368 11.0076C13.3921 10.4056 12.7434 10 12 10C10.8954 10 10 10.8954 10 12C10 13.1046 10.8954 14 12 14C12.7434 14 13.3921 13.5944 13.7368 12.9924L15.4736 13.9849C14.7841 15.1888 13.4868 16 12 16C9.79086 16 8 14.2091 8 12C8 9.79086 9.79086 8 12 8Z" fill="#313234"/>
</svg>

<svg xmlns="http://www.w3.org/2000/svg" width="24" height="24" fill="none" viewBox="0 0 24 24"><path fill="#313234" fill-rule="evenodd" d="M4 12c0 4.411 3.589 8 8 8s8-3.589 8-8-3.589-8-8-8-8 3.589-8 8m-2 0C2 6.486 6.486 2 12 2s10 4.486 10 10-4.486 10-10 10S2 17.514 2 12m10-4c1.487 0 2.784.811 3.474 2.015l-1.737.993a2 2 0 1 0 0 1.984l1.737.993A4 4 0 1 1 12 8" clip-rule="evenodd"/></svg>
